X:1
T:Title
%%score ( 1 2 ) { 3 | 4 }
L:1/8
Q:1/4=128
M:4/2
K:G
V:1 treble nm="Grand Piano, Soprano"
V:2 treble 
V:3 bass nm="Choir Pad, Colomiers, Daniel B. Towner"
V:4 bass 
V:1
 D2 D2 [DG]4 [DG]3 [DA] [DG]2 [DF]2 | [CE]2 [B,D]2 [DA]4 [FA]2 [FB]2 G4 | %2
w: By~Daniel~Brink~Towner,~1891 * * * * * *||
 G2 [GA]2 [GB]4 [GB]3 [GB] [GB]2 [EA]2 | [DG]2 [GB]2 [FA]4 [EA]2 E2 [FA]4 | %4
w: ||
 D2 D2 [DG]4 [DG]3 [DA] [DG]2 [DF]2 | [CE]2 [B,D]2 [DB]4 [^DB]2 [Dc]2 [EB]4 | z4 .d4 .A4 z4 | %7
w: |||
 [EG]2 [EA]2 [DB]4 [FA]3 [FA] G4 | [GB]2 [Ac]2 [Bd]4 [Gd]3 [Ge] [Gd]2 [GB]2 | %9
w: ||
 [GA]2 [DG]2 [EG]4 [EG]2 [CE]2 [EG]4 | [EG]2 [EA]2 [DB]4 [GB]3 [GB] [GB]2 [GA]2 | %11
w: ||
 [DG]2 [GB]2 [FA]4 [FA]3 [GB] [FA]4 | [GB]2 [Ac]2 [Bd]4 [Gd]3 [Ge] [Gd]2 [GB]2 | %13
w: ||
 [DA]2 [DG]2 [EG]4 [EG]2 [CE]2 [EG]4 | [DF]2 [CE]2 [B,D]4 [DG]2 [FA]2 [GB] [Gd]3 | %15
w: ||
 [GB]2 [DG]2 [FA]4 [FB]3 [FA] G4- | G4 z4 z8 |] %17
w: ||
V:2
 x16 | x16 | x16 | x16 | x16 | x16 | [GB]2 [Gc]2 G- [GB]3 D2- [DG]2 [CE] [EG]3 | x16 | x16 | x16 | %10
 x16 | x16 | x16 | x16 | x16 | x16 | x16 |] %17
V:3
 B,2 B,2 B,4 B,3 C B,2 A,2 | G,2 G,2[K:treble] C4 C2 D2 B,4 | B,2 C2 D4 D3 D D2 ^C2 | %3
 B,2 D2 D4 ^C2 C2 D4 | C2 C2[K:bass] B,4 B,3 C B,2 A,2 | G,2 G,2 G,2 B,2 A,2 A,2 B,4 | %6
 G,2 G,2 G, D3 B,2 G,2 G,[K:treble] C3 | C2 C2 G,4 C3 C[K:bass] B,4 | %8
 G,2 G,2 G,4 B,3[K:treble] C B,2 D2 | C2 B,2 C4 C2 G,2 C4 | C2 C2 B,4 D3 D D2 C2 | %11
 B,2 D2 D4 D3 D D4 | G,2 G,2 G,4 B,3 C B,2[K:treble] D2 | C2 B,2 C4 C2[K:bass] G,2 C4 | %14
 G,2 G,2 G,4 B,2[K:treble] C2 D B,3 | D2 B,2 C4 D3 C B,4- | B,4 z4 z8 |] %17
V:4
 G,2 G,2 G,4 G,3 G, G,2 G,2 | z4 D,4 D,2 D,2 G,4 | G,2 G,2 G,4 G,3 G, E,2 E,2 | %3
 E,2 E,2 A,4 A,2 A,2 D,4 | E,2 G,2 G,4 G,3 G, G,2 G,2 | z8 F,2 F,2 G,4 | E,2 E,2 B,,4 B,,4 C, C,3 | %7
 C,2 C,2 D,4 D,3 D, [G,,G,]4 | z8 G,3 G, G,2 G,2 | G,2 G,2 C,4 C,2 C,2 C,4 | %10
 C,2 C,2 G,4 G,3 G, G,2 G,2 | G,2 G,2 D,4 D,3 D, D,4 | z8 G,3 G, G,2 G,2 | %13
 F,2 G,2 C,4 C,2 C,2 C,4 | C,2 C,2 G,,4 G,,2 D,2 G, G,3 | G,2 G,2 D,4 D,3 D, [G,,G,]4- | %16
 [G,,G,]4 z4 z8 |] %17

